public/avatar/item1/62.svg

<svg xmlns:xlink="http://www.w3.org/1999/xlink" height="65.4" width="80.15" xmlns="http://www.w3.org/2000/svg"><use height="20.8" transform="translate(13.85 32.5)" width="35.4" xlink:href="#a"/><defs><g id="a"><path d="m7.2 30.75-7.9.4-2.7-.5q2.5-6.9-1-9.4-4.95-3.45-8.25-.55l-.95 1q-1.6 1.6-1.85 2.35-1 2.6 2 3.25 1.95.45 2.4 1.2v.65l-1.8-.15-2.8-.05q-1.8 1.1-1.3 3.9.65 3.2 5.05 4.45 6.7 1.85 12.5 1.85 7.7 0 13.2-2.65 3.6-1.85 3.3-4.7-.25-3.1-2.9-3.45-.8-.1-3.05.95-2.7 1.2-3.95 1.45" fill="#44bf2a" fill-rule="evenodd" transform="translate(17.75 -18.7)"/><path d="m-2.6 28.2.15.1q1.75-5.1-2-7.5-5.25-3.2-7.25-.75 3.1-.1 5.85 2.5Q-3.25 25-2.6 28.2m7.05 3.3h-.5q-4.85-1.05-7.65-.15v.45q6.05 2.5 13.25-.2 3.9-1.35 4.75-2.8-1.55-.8-4.85.9-3.7 1.95-5 1.8" fill="#84f06f" fill-rule="evenodd" transform="translate(17.75 -18.7)"/><path d="M-14.95 23.3q-.45.3-.45 1.75.1 1.5 1.95 2.35l1.7.55q1 .45.45 1.1-.25.3-1.45.8-1.05.45-1.15 1.05-.25 1.7 2.6 3l2.25.5q-.95-.25-1.35-1.25-.4-1.1.1-2.1.25-.55 2.2-1 1.8-.45 1.75-1.1-.05-.9-4.1-2.5-2.35-.85-3.55-2.25-.8-1-.95-.9" fill="#389e23" fill-rule="evenodd" transform="translate(17.75 -18.7)"/><path d="M10.3 34.8q-7.35 1.6-12.25 1.5-7.25-.1-9.1-4.2-.35-.75-.35-2.5-.85-1.35-3.6-.6l-1.65 1.15-.3 2.25.4 1.6q1.4 1.8 3.6 2.8 3.65 1.7 9.9 1.9l11.1-.5 5.5-1.65 2.8-1.5.85-2.75-.35-.9-.05-.2q-2.6 2.75-6.5 3.6" fill="#389e23" fill-rule="evenodd" transform="translate(17.75 -18.7)"/><path d="M-5.9 20.7q-3.65-.9-4 2.1-.4 3 2.6 4.2 2.85 1.1 3.6-2.25.8-3.3-2.2-4.05" fill="#416e37" fill-rule="evenodd" transform="translate(17.75 -18.7)"/><path d="M-6.1 21.35q-2.7-.7-3 1.65-.3 2.3 1.95 3.15 2.1.85 2.7-1.7.6-2.6-1.65-3.1" fill="#fff" fill-rule="evenodd" transform="translate(17.75 -18.7)"/><path d="M-6.1 22.75q-1.1-.15-1.4.8-.35.95.8 1.55 1.15.55 1.45-.8.35-1.4-.85-1.55" fill-rule="evenodd" transform="translate(17.75 -18.7)"/><path d="M-7.4 22.75q-.5.25-.05.8.5.6 1 .25.5-.3.05-.8-.4-.55-1-.25" fill="#fff" fill-rule="evenodd" transform="translate(17.75 -18.7)"/><path d="M5.1 31.25q-6.15.4-8.5-.6 3.1-6.75-.3-9.1-2.85-1.9-4.55-2.25-2.1-.45-4.2.95t-2.9 3.2q-.7 1.55-.05 2.55.45.65 2.3 1.35 1.75.65 1.9.9l-.1.65-4.35.05q-2.65 1.85-.9 5.05 2.1 3.9 11.4 4.75 8.45.7 14.7-.75 9.15-2.25 7.25-7.6-.95-2.55-3.45-2L9.5 29.9q-2.9 1.25-4.4 1.35Z" fill="none" stroke="#32542a" stroke-linecap="round" stroke-linejoin="round" transform="translate(17.75 -18.7)"/><path d="M11.65 30.45q-1.05.2-.75 1.05.3.85 1.4.55 1.15-.25.85-1.05-.25-.75-1.5-.55m-1.95 2.9q-2.1-.15-1.85 1.25.3 1.4 1.75 1.5 1.35.1 1.55-1.25.15-1.35-1.45-1.5m4.6-.65q-.9-.3-1.1.65-.25.9.45 1.1.7.2 1-.65.35-.9-.35-1.1m-28.75-2.25q-.7-.3-.8.6-.05.85.55 1.15.55.25.7-.65.1-.9-.45-1.1m.85 3.25q-.4-.3-.65.4t.3.95q.6.3.8-.3.2-.6-.45-1.05" fill="#256b18" fill-rule="evenodd" transform="translate(17.75 -18.7)"/></g></defs></svg>

<?xml version="1.0" encoding="UTF-8" standalone="no"?>
<svg xmlns:xlink="http://www.w3.org/1999/xlink" height="65.4px" width="80.15px" xmlns="http://www.w3.org/2000/svg">
  <g transform="matrix(1.0, 0.0, 0.0, 1.0, 31.6, 13.8)">
    <use height="20.8" transform="matrix(1.0, 0.0, 0.0, 1.0, -17.75, 18.7)" width="35.4" xlink:href="#shape0"/>
  </g>
  <defs>
    <g id="shape0" transform="matrix(1.0, 0.0, 0.0, 1.0, 17.75, -18.7)">
      <path d="M7.2 30.75 L-0.7 31.15 -3.4 30.65 Q-0.9 23.75 -4.4 21.25 -9.35 17.8 -12.65 20.7 L-13.6 21.7 Q-15.2 23.3 -15.45 24.05 -16.45 26.65 -13.45 27.3 -11.5 27.75 -11.05 28.5 L-11.05 29.15 -12.85 29.0 -15.65 28.95 Q-17.45 30.05 -16.95 32.85 -16.3 36.05 -11.9 37.3 -5.2 39.15 0.6 39.15 8.3 39.15 13.8 36.5 17.4 34.65 17.1 31.8 16.85 28.7 14.2 28.35 13.4 28.25 11.15 29.3 8.45 30.5 7.2 30.75" fill="#44bf2a" fill-rule="evenodd" stroke="none"/>
      <path d="M-2.6 28.2 L-2.45 28.3 Q-0.7 23.2 -4.45 20.8 -9.7 17.6 -11.7 20.05 -8.6 19.95 -5.85 22.55 -3.25 25.0 -2.6 28.2" fill="#84f06f" fill-rule="evenodd" stroke="none"/>
      <path d="M4.45 31.5 L3.95 31.5 Q-0.9 30.45 -3.7 31.35 L-3.7 31.8 Q2.35 34.3 9.55 31.6 13.45 30.25 14.3 28.8 12.75 28.0 9.45 29.7 5.75 31.65 4.45 31.5" fill="#84f06f" fill-rule="evenodd" stroke="none"/>
      <path d="M-14.95 23.3 Q-15.4 23.6 -15.4 25.05 -15.3 26.55 -13.45 27.4 L-11.75 27.95 Q-10.75 28.4 -11.3 29.05 -11.55 29.35 -12.75 29.85 -13.8 30.3 -13.9 30.9 -14.15 32.6 -11.3 33.9 L-9.05 34.4 Q-10.0 34.15 -10.4 33.15 -10.8 32.05 -10.3 31.05 -10.05 30.5 -8.1 30.05 -6.3 29.6 -6.35 28.95 -6.4 28.05 -10.45 26.45 -12.8 25.6 -14.0 24.2 -14.8 23.2 -14.95 23.3" fill="#389e23" fill-rule="evenodd" stroke="none"/>
      <path d="M10.3 34.8 Q2.95 36.4 -1.95 36.3 -9.2 36.2 -11.05 32.1 -11.4 31.35 -11.4 29.6 -12.25 28.25 -15.0 29.0 L-16.65 30.15 -16.95 32.4 -16.55 34.0 Q-15.15 35.8 -12.95 36.8 -9.3 38.5 -3.05 38.7 L8.05 38.2 13.55 36.55 16.35 35.05 17.2 32.3 16.85 31.4 16.8 31.2 Q14.2 33.95 10.3 34.8" fill="#389e23" fill-rule="evenodd" stroke="none"/>
      <path d="M-5.9 20.7 Q-9.55 19.8 -9.9 22.8 -10.3 25.8 -7.3 27.0 -4.45 28.1 -3.7 24.75 -2.9 21.45 -5.9 20.7" fill="#416e37" fill-rule="evenodd" stroke="none"/>
      <path d="M-6.1 21.35 Q-8.8 20.65 -9.1 23.0 -9.4 25.3 -7.15 26.15 -5.05 27.0 -4.45 24.45 -3.85 21.85 -6.1 21.35" fill="#ffffff" fill-rule="evenodd" stroke="none"/>
      <path d="M-6.1 22.75 Q-7.2 22.6 -7.5 23.55 -7.85 24.5 -6.7 25.1 -5.55 25.65 -5.25 24.3 -4.9 22.9 -6.1 22.75" fill="#000000" fill-rule="evenodd" stroke="none"/>
      <path d="M-7.4 22.75 Q-7.9 23.0 -7.45 23.55 -6.95 24.15 -6.45 23.8 -5.95 23.5 -6.4 23.0 -6.8 22.45 -7.4 22.75" fill="#ffffff" fill-rule="evenodd" stroke="none"/>
      <path d="M5.1 31.25 Q-1.05 31.65 -3.4 30.65 -0.3 23.9 -3.7 21.55 -6.55 19.65 -8.25 19.3 -10.35 18.85 -12.45 20.25 -14.55 21.65 -15.35 23.45 -16.05 25.0 -15.4 26.0 -14.95 26.65 -13.1 27.35 -11.35 28.0 -11.2 28.25 L-11.3 28.9 -15.65 28.95 Q-18.3 30.8 -16.55 34.0 -14.45 37.9 -5.15 38.75 3.3 39.45 9.55 38.0 18.7 35.75 16.8 30.4 15.85 27.85 13.35 28.4 L9.5 29.9 Q6.6 31.15 5.1 31.25 Z" fill="none" stroke="#32542a" stroke-linecap="round" stroke-linejoin="round" stroke-width="1.0"/>
      <path d="M11.65 30.45 Q10.6 30.65 10.9 31.5 11.2 32.35 12.3 32.05 13.45 31.8 13.15 31.0 12.9 30.25 11.65 30.45" fill="#256b18" fill-rule="evenodd" stroke="none"/>
      <path d="M9.7 33.35 Q7.6 33.2 7.85 34.6 8.15 36.0 9.6 36.1 10.95 36.2 11.15 34.85 11.3 33.5 9.7 33.35" fill="#256b18" fill-rule="evenodd" stroke="none"/>
      <path d="M14.3 32.7 Q13.4 32.4 13.2 33.35 12.95 34.25 13.65 34.45 14.35 34.65 14.65 33.8 15.0 32.9 14.3 32.7" fill="#256b18" fill-rule="evenodd" stroke="none"/>
      <path d="M-14.45 30.45 Q-15.15 30.15 -15.25 31.05 -15.3 31.9 -14.7 32.2 -14.15 32.45 -14.0 31.55 -13.9 30.65 -14.45 30.45" fill="#256b18" fill-rule="evenodd" stroke="none"/>
      <path d="M-13.6 33.7 Q-14.0 33.4 -14.25 34.1 -14.5 34.8 -13.95 35.05 -13.35 35.35 -13.15 34.75 -12.95 34.15 -13.6 33.7" fill="#256b18" fill-rule="evenodd" stroke="none"/>
    </g>
  </defs>
</svg>
